X:1
T:THE "RAG TIME DANCE."
T:THE "RAG TIME DANCE."
T:To my friend Bobby Kemp.
T:Words and Music by SCOTT JOPLIN.
T:John Stark &amp; Son, 1902
T:John Stark &amp; Son, 1902
T:John Stark &amp; Son, 1902
T:John Stark &amp; Son, 1902
T:John Stark &amp; Son, 1902
T:John Stark &amp; Son, 1902
T:John Stark &amp; Son, 1902
T:John Stark &amp; Son, 1902
T:John Stark &amp; Son, 1902
T:John Stark &amp; Son, 1902
T:John Stark &amp; Son, 1902
T:John Stark &amp; Son, 1902
T:John Stark &amp; Son, 1902
C:Scott Joplin
Z:John Stark & Son, 1902
%%score ( 1 2 ) { ( 3 5 ) | ( 4 6 ) }
L:1/8
Q:1/4=80
M:2/4
K:Bb
V:1 treble nm="Voice"
V:2 treble 
V:3 treble nm="Piano"
V:5 treble 
V:4 bass 
V:6 bass 
V:1
 z4 | z4 | z4 | z4 |: z2 z"^This measure to be vamped until\nsinger is ready." F/F/ :| F/FF/ FF | %6
w: ||||I at|ten ed a ball last|
w: ||||||
 GB/B/- B2 | d/d/d/d/ fd | c2- cF/F/ | FF/F/- F/F/F | GB BB/B/ | AF/F/ Gc |{/c} F2- FF | %13
w: thurs day night *|Gi ven by the dark town|swells....... * Ev' ry|coon came out * in full|dress al right and the|girls were so cie ty|belles * The|
w: |||||||
 FF/F/ F/F/F/F/ | G/G/B/B/ B>B | (3(d/d/d/)d/d/ fd | c2- cF | B/B/B/B/ dd/d/ | %18
w: hall was il lu mi na ted|by e lec tric lights it|cer tain ly was a sight to|see....... * So|ma ny col ored folks there with|
w: |||||
 e/e/G/G/ !fermata!B=E/E/ | F>d cF | B2- BD/D/ | G/G/B d>d | ee/e/ d/G/G/A/ | %23
w: out a ra zor fight twas a|great sur prise to|me...... * There was|lit tle Sam' Smith the|great "la dy's man" who had the|
w: |||||
 (3(B/B/B/)B/B/ (3(A/A/A/)B/A/ | G2- GD/D/ | G/G/B/B/ d/d/d/d/ | e/e/e/e/ dB/B/ | %27
w: hon or of be ing man a ger of the|floor..... * Told the|peo ple to get re ady for the|time is near at hand And the|
w: ||||
 A/A/A/A/ =e/e/^c/A/ | d2- dD/D/ | G/G/B/B/ d/d/d/d/ | e/e/e/e/ d/G/G/A/ | B(3(B/B/B/) AB/A/ | %32
w: dance be gins at nine o' clock you|know....... * Then the|or ches tra be gan to play the|sweet entr anc ing mu sic of the|most pop u lar dance of the|
w: |||||
 G3 d/d/ | e/e/e/e/ d/d/d/d/ | c/c/c/c/ B/B/G/A/ | B/B/B/B/ c/c^c/ | d2 (f!fermata!F) |: %37
w: day Ev' ry|cou ple took their pla ces all the|coons had smil ing fac es while they|wait ed for the cal ler to|say well *|
w: |||||
 B/c/d- d/c/B/c/ | dF F2 | z4 | z4 | (c/d/)e- e/d/c/d/ | eF F2 | z4 | z4 | %45
w: Let me see * you do the|"rag time dance"|||Turn * left * and do the|"Cake walk prance"|||
w: Let me see * you do the|"clean up dance"|||Now you do * the "Jen nie|Cool er dance"|||
"_1st and 2nd verses.""_Begin \"Worlds fair dance\", here." B/c/d/d/ d/c/B/c/ | dF- F2 | z4 | z4 | %49
w: Turn the oth er way and do the|"Slow drag!!..... *|||
w: Turn the oth er way and do the|"Slow drag!!..... *|||
 (G/A/)B/A/ B/A/B/G/ | Fd- dF |"^1st and 2nd verses.""^Begin \"Rag time dance\"""^here" c>d cF |1 %52
w: * Now take your la dy to the|worlds fair...... * And|do the "rag time|
w: * Now take your la dy to the|worlds fair...... * And|do the "rag time|
 B2- B z :|2 B2- B z ||[K:Eb] z4 | z4 | z4 | z4 |: B/B/e- e/e/(d/c/) | (c/B/)=A/B/- B2 | %60
w: dance!!...... *|dance!!..... *|||||Now * "rag" * and "cir cle|to * your left" *|
w: ||||||Ev' ry bo _ dy now... *|"form * a line" *|
"^1st verse, begin \"Circle\"""^2nd verse, \"Form line\"""^here" Gc- c/c/(B/A/) | (A/G/)^F/G/- G2 | %62
w: Be care _ ful to.... *|do... * your best *|
w: Dance noth _ ing but the|real * rag time *|
 c/ d2 c3/2 | B/c/B- B2 |"^2nd verse, begin \"Forward four steps.\"""^here" d/F^F/ G=A | B2- B z | %66
w: take your time|stay in line *|you are the rag time|guest..... *|
w: do your best|"forward four steps" *|you are all ve ry|fine..... *|
 Be- e/e/d/c/ | (c/B/)=A/B/- B2 | %68
w: Take part _ ners do the|"rag * two step" *|
w: * see * you do the|"back * step prance" *|
"^1st verse, begin \"rag two step,\"""^2nd verse, begin \"Back step prance\"""^here" Gc- c/c/B/A/ | %69
w: I know * you are en|
w: Be grace * ful at...... *|
 (A/G/)^F/G/- G2 | cE F^F | A B2 A |"^Begin \"Rag time dance\"""^here" G2 F2 |1 EB B/B/B :|2 %74
w: joy ing your selves *|you are rep re|sent tives of|,dark town's|wealth stop where you are|
w: ev' _ ry chance *|you are now en|joy ing the|"rag time||
 EB/B/ B/B/B |:"^1st verse, begin \"Cake walk.\"\nhere" df c>=B | %76
w: dance" ev' ry bo dy sing.|"Cake walk" soft and|
w: |To your right *|
"^2nd verse \"Turn to your right.\"\nhere" c c2 _B | %77
w: sweet ly be|
w: "dude walk" *|
"^2nd verse, begin \"Dude walk.\"\n here" ce B>=A | B B2 E | DF Ad | c3 F | EF Gc | B3 B | %83
w: sure your steps done|neat ly keep|up a slow ad|vance 'twill|put you in a|trance now|
w: * sight * the|"town talk" this|is your on ly|chance en|joy it while you|can now|
 df c>=B | c c2 _B |"^1st and 2nd verses, \"Form line\" \nhere" ce B>=A | B B2 B | cE (F^F) | %88
w: "form a line" *|did fore you're|danc ing with your|best beau *|on ly real *|
w: "form a per fect|straight line" get|rea dy for the|"Stop time you|are the "ea sy|
 G B2 A |"^Begin \"Rag time dance.\"\nhere." G2 F2 |1 EB/B/ B/B/B :|2 E2- E z |: z4 | z4 | z4 | %95
w: thing is the|"rag time|dance" ev' ry bo dy turn|dance"...... *||||
w: winners" * *|rag time||||||
 z4 | z4 | z4 | z4 | z4 :: z4 | z4 | z4 | z4 | z4 | z4 | z4 |1 z4 :|2 z4 || z4 | z4 | z4 | z4 | %113
w: ||||||||||||||||||
w: ||||||||||||||||||
 z4 | z4 | z4 | z4 | z4 | z4 | z4 | z4 | z4 | z4 | z4 | z4 | z4 |: z4 | z4 | (G/A/)B z G | %129
w: |||||||||||||||Turn * left walk|
w: |||||||||||||||We've fin _ _|
 F2- F z | z4 | z4 | (F/G/)A z F |1 E2- E z :|2 E2- E z!fine! |] %135
w: round, *|||walk "Se did us"|now. *|dance!" *|
w: prance. *|||the * "Rag time|||
V:2
 x4 | x4 | x4 | x4 |: x4 :| x4 | x4 | x4 | x4 | x4 | x4 | x4 | x4 | x4 | x4 | x4 | x4 | x4 | x4 | %19
w: |||||||||||||||||||
w: |||||||||||||||||||
 x4 | x4 | x4 | x4 | x4 | x4 | x4 | x4 | x4 | x4 | x4 | x4 | x4 | x4 | x4 | x4 | x4 | x4 |: x4 | %38
w: |||||||||||||||||||
w: |||||||||||||||||||
 x4 | x4 | x4 | x4 | x4 | x4 | x4 | x4 | x4 | x4 | x4 | x4 | x4 | x4 |1 x4 :|2 x4 ||[K:Eb] x4 | %55
w: |||||||||||||||||
w: |||||||||||||||||
 x4 | x4 | x4 |: x4 | x4 | x4 | x4 | x4 | x4 | x4 | x4 | B/B/ z3 | x4 | x4 | x4 | x4 | A/G/ z3 | %72
w: ||||||||||||||||* a|
w: |||||||||||Let me||||||
 x4 |1 x4 :|2 x4 |: z3 c/=B/ | z3 _B/B/ | c/c/ z2 B/ z/ | x4 | x4 | x4 | x4 | x4 | z3 B/=B/ | %84
w: |||||||||||as you|
w: |||do the|'tis a|wonderful * is|||||||
 c/c/ z3 | x4 | z3 B/B/ | x4 | z3 A/A/ | x4 |1 x4 :|2 x4 |: x4 | x4 | x4 | x4 | x4 | x4 | x4 | %99
w: * be||but the|||||||||||||
w: ||||in the|||||||||||
 x4 :: x4 | x4 | x4 | x4 | x4 | x4 | x4 |1 x4 :|2 x4 || x4 | x4 | x4 | x4 | x4 | x4 | x4 | x4 | %117
w: ||||||||||||||||||
w: ||||||||||||||||||
 x4 | x4 | x4 | x4 | x4 | x4 | x4 | x4 | x4 |: x4 | x4 | x B/B/ x G/G/ | x4 | x4 | x4 | x4 |1 %133
w: |||||||||||* * * a|||||
w: |||||||||||ish ed in a|||||
 x4 :|2 x4 |] %135
w: ||
w: ||
V:3
"^Voice.""_Piano.""^Not fast." [df]/[df][df]/ [df]/[df]/[df]/[df]/ | %1
 [eg][gb]/[gb]/- [gb]/b/c'/^c'/ | d'/f^f/ [=eg][_ea] | [db] z2 [A,EF] |: %4
"^Vamp 'till ready." [B,DB]/ z2 z/ [A,_EF] :| [B,DF]/FF/ FF | GB/B/- B/G/B/e/ | %7
 [FBd]/[FBd]/[FBd]/[FBd]/ [FBf][FBd] | [EAc]2- [EAc][EF] | [DF]F/F/- F/F/F | G[_GB] [FB]B/B/ | %11
 [FA]F/F/ [=EG]c |{/c} F2- F[EF] | [DF]F/F/ F/F/F/F/ | G/G/B/B/ B/G/B/e/ | %15
 [FBd][FBd]/[FBd]/ [FBf][FBd] | [EAc]2- [EAc][EF] | [DFB][DFB] [FBd][FBd] | %18
 [EBe][EG] !fermata![^C=EB][CE] | [DF]>[Fd] [Ec][EF] | [DB]2- [DB]D/D/ | G/G/B d>d | %22
 ee/e/ d/G/G/A/ | B/B/B/B/ A/A/c/A/ | G-{/^c}[G-d]{/c} [Gd][D^FAd] | G/G/B/B/ d/d/d/d/ | %26
 e/e/e/e/ dB/B/ | [^FA]/A/A/A/ [G=e]/[Ge]/[G^c]/[GA]/ | [^Fd]2- [Fd]D/D/ | G/G/B/B/ d/d/d/d/ | %30
 e/e/e/e/ d/G/G/A/ | BB/B/ AB/A/ | G(3d/^c/d/ gd/d/ | GG GG | [D^F][DF] [DG] z | %35
 [GB]/[GB]/[GB]/[GB]/ [GAc]/[GAc][GA^c]/ | [^FAd]2 !fermata![=FAe=f]2 |: %37
 [Bdb]/[cec']/[dfd']- [dfd']/[cec']/[Bdb]/[cec']/ | [dfd'][Fdf]/[Fdf]/- [Fdf]/f/b/c'/ | %39
"^1st Verse, Begin \"rag time dance\"""^2nd Verse Begin \"Clean up dance\"" [dd']/f/b/[dd']/- [dd']/f/[dd']/[fe']/- | %40
 [fe']/a/[ff']/a/ c'/[ee']f/ | [cac']/[dbd']/[ec'e']- [ec'e']/[dbd']/[cac']/[dbd']/ | %42
 [ec'e'][Fef]/[Fef]/- [Fef]/f/a/c'/ | %43
"_1st and 2nd verse, Begin.""_\"Slow drag.\"""_here" [ee']/a/c'/[=e=e']/- [ee']/b/[ee']/[ff']/- | %44
 [ff']/d'/[gg']/d'/ f'/d'/b/f/ | [Bdb]/[cec']/[dfd']/[dfd']/ [dfd']/[cec']/[Bdb]/[cec']/ | %46
 [dfd'][Fdf]/[Fdf]/- [Fdf]/B/d/f/ | [_A_a]/d/f/[Aa]/- [Aa]/d/[Aa]/[Gg]/- | %48
 [Gg]/e/[^F^f]/B/ e/[Gg]g/- | g/(a/b/a/ b/a/b/g/) | f[fd']- [fd']/g/=b/d'/ | %51
 [=ebc']/[ebc'][ebd']/ [_ec']/f/[ec']/[ef]/ |1 [db]2- [db] z :|2 [db]2 [bd'f'b'] z || %54
[K:Eb]"^Form a \"Square\"" B/=B/c/^c/ d2- | d/d/e/=e/ f2 | a/g/f/e/ d/_d/c/_c/ | B z [Bdfb] z |: %58
 [GB][Ge]- [Ge]/[ce]/[Bd]/[Ac]/ | [Gc]/B/=A/B/- B/E/F/^F/ | G[Gc]- [Gc]/c/B/A/ | %61
 A/G/^F/G/- G/A/A/B/ | [Ac]/[Ad][Ac]/- [Ac]/F/G/A/ | [GB]/[Gc][GB]/- [GB]/B/c/^c/ | %64
 d/F^F/ [=EG][_E=A] | [DB]2- [DB] z | [GB][Ge]- [Ge]/[ce]/[Bd]/[Ac]/ | [Gc]/B/=A/B/- B/E/F/^F/ | %68
 G[Gc]- [Gc]/c/B/A/ | A/G/^F/G/- G/G/A/B/ | c[CE] [CEF][CE^F] | [B,EG] [C=EB]2 [CFA] | G2 F2 |1 %73
 [G,B,E]B [DAB]2 :|2 [G,B,E]B/b/ b/b/b |: [ad'][af'] [ac']>=b | [ac']/d/f/a/ b/c'b/ | %77
 [gc'][ge'] [gb]>=a | [gc']/B/e/f/ g/b/g/e/ | d/e/f/g/ a/b/d'/[ac']/- | [ac']/B/c/d/- d/a/g/f/ | %81
 e/=e/f/^f/ g/b/c'/[gb]/- | [gb]/B/e/g/- g/g/b | [ad'][af'] [ac']>=b | [ac']/d/f/a/ b/c'b/ | %85
 [gc'][ge'] [gb]>=a | [gb]/B/e/g/ bb | c'[ce] [cef][ce^f] | [Beg] [c=eb]2 [cfa] | g2 f2 |1 %90
 [GBe]b/b/ b/b/b :|2 [GBe] z [egbe'] z |: %92
!p! z"^\"Stop time!\"""^Notice. To get the desired effect of \"Stop Time\" the pianist will please Stamp the heel of one foot heavily upon\nthe floor at every word \"Stamp\" Do not raise the toe of the foot from the floor while stamping.""^Author." [Bg]- ([Bg]/f/[Bg]/e/) | %93
 [Aa] z z2 | z [Aa]- ([Aa]/e/[Aa]/e/) | [=A=a] z z2 | z [=A=a]- ([Aa]/e/[Aa]/e/) | [Bb] z [cc']2- | %98
 [cc'][Bb]- [Bb]/g/f/B/ | e z [egbe'] z :: %100
"_Stamp.""_l.h.""^r.h." (b/=a/_a/=g/"_Stamp." _g/f/=e/_e/ |"_Stamp." d/_d/c/_c/"_Stamp." B) z | %102
 G,/A,/B, z [=A,EG] | [_A,DF] z [DB] z |"_Stamp.""_l.h.""^r.h." (a/g/_g/f/"_Stamp." =e/_e/d/_d/ | %105
"_Stamp." c/_c/B/=A/"_Stamp." _A) z | F,/G,/A, z [A,B,DF] |1 [G,B,E] z [EGBe] z :|2 %108
 [G,B,E] z [EGBe] z/ e/ ||"^r.h.""_l.h.""_Stamp." [_dg][df]/e/"_Stamp." [cg][cf]/e/ | %110
"_Stamp." [_cf]/e/[cf]/g/"_Stamp." [Be][eb]/g/ | b/g/c'/b/- b/g/f/e/ | %112
!<(! [=Aeg]/[Aef]!f![Bdb]/-!>(! [Bdb]>e!<)!!>)! | %113
"^r.h.""_l.h.""_Stamp."!p! [_dg][df]/e/"_Stamp." [cg][cf]/e/ | %114
"_Stamp." [_cf]/e/[cf]/g/"_Stamp." [Be][eb]/g/ | b/g/c'/b/- b/g/f/e/ | [Bg]/e/[Adf] [Ge]>e | %117
"^r.h.""_l.h.""_Stamp." [_dg][df]/e/"_Stamp." [cg][cf]/e/ | %118
"_Stamp." [_cf]/e/[cf]/g/"_Stamp." [Be][eb]/g/ | b/g/c'/b/- b/g/f/e/ | %120
!<(! [=Aeg]/[Aef]!f![Bdb]/-!>(! [Bdb]>e!<)!!>)! | %121
"^r.h.""_l.h.""_Stamp."!p! [_dg][df]/e/"_Stamp." [cg][cf]/e/ | %122
"_Stamp." [_cf]/e/[cf]/g/"_Stamp." [Be][=ce^f] | !^![Beg] z z2 | z !^![dab] !^![ege'] z | %125
"_Pianist will pause until\nlast gent has finished\ndancing." !fermata!z4 |: %126
"_Stamp.""_l.h.""^r.h.""^2nd verse, begin \"Sedidus walk.\"\nEverybody \"in line\" with last dancer." (b/=a/_a/=g/"_Stamp." _g/f/=e/_e/ | %127
"_Stamp.""^All sing." d/_d/c/_c/"_Stamp." B) z | G,/A,/B, z [=A,EG] | [_A,DF] z [DB] z | %130
"_Stamp.""_l.h.""^r.h." (a/g/_g/f/"_Stamp." =e/_e/d/_d/ | %131
"_Stamp." c/_c/B/=A/"_Stamp."!<(! _A) z!<)! | F,/G,/!<(!A, z [A,B,DF]!<)! |1 %133
 [G,B,E] z!>(! !^![EGBe] z!>)! :|2 [G,B,E] z !^![EGBe] z |] %135
V:4
 B,,[F,B,D] F,[B,D] | E,[G,B,E] =E,[G,B,^C] | F,[B,D] [C,C][F,,F,] | %3
 [B,,B,]([B,,D,]/[C,E,]/ [D,F,])F, |: ([B,,F,]/[B,,D,]/[C,E,]/[^C,=E,]/ [D,F,]F,) :| %5
 B,,[F,B,D] F,,[F,B,D] | E,,[G,B,E] G,,[G,B,E] | [B,,B,][F,,F,] [D,,D,][B,,,B,,] | %8
 [F,,F,][^F,,^F,] [G,,G,][A,,A,] | [B,,B,][F,B,D] D,[F,B,D] | E,-[E,B,E] D,_D, | %11
 B,,[A,C] =E,[B,C=E] | [F,A,C][C,C]/[A,,A,]/- [A,,A,]/[F,,F,]/[G,,G,]/[A,,A,]/ | %13
 [B,,B,][F,B,D] F,,[F,B,D] | E,,[G,B,E] G,,[G,B,E] | [B,,B,][F,,F,] [D,,D,][B,,,B,,] | %16
 [F,,F,][^F,,^F,] [G,,G,][A,,A,] | [B,,B,]2 [_A,,_A,]2 | [G,,G,]2 !fermata![_G,,_G,] z | %19
 [F,,F,][F,B,] [F,A,][F,A,] | [B,,B,]F, B,, z | G,,[G,B,D] G,,[G,B,D] | C,[G,CE] G,,[G,B,D] | %23
 D,,[G,B,D] D,,[^F,CD] | G,,[G,B,D] [G,B,D][D,,D,] | G,,[G,B,D] G,,[G,B,D] | C,[G,CE] G,,[G,B,D] | %27
 A,,[^F,A,D] A,,[G,A,^C] | [D,A,D][A,,A,] [D,,D,] z | G,,[G,B,D] G,,[G,B,D] | C,[G,CE] G,,[G,B,D] | %31
 D,,[G,B,D] D,,[^F,CD] | G,,[G,B,D] [G,B,D] z | [C,C][C,C] [B,,B,][B,,B,] | %34
 [A,,A,][A,,A,] [A,,A,][G,B,D] | [E,,E,][G,B,E] [E,,E,][E,,E,] | %36
 [D,,D,]2 [C,,C,]!fermata![A,,,A,,] |: B,,[F,B,D] F,,[F,B,D] | B,,[F,B,D] F,,[F,B,D] | %39
 [B,,B,][F,B,D] [=B,,=B,][F,^G,D] | [C,C][F,A,E] [F,,F,][F,A,E] | [F,,F,][F,A,E] [A,,A,][F,A,E] | %42
 [F,,F,][F,A,E] [A,,A,][F,A,E] | [C,C][A,EF] [^C,^C][B,CG] | [D,D][B,DF] [B,,B,][F,B,D] | %45
 B,,[F,B,D] F,,[F,B,D] | B,,[F,B,D] F,,[F,B,D] | B,,[B,D] F,[B,D] | E,[B,E] E,[B,E] | %49
 =E,[G,B,^C] E,[G,B,C] | F,[B,D] G,,[G,=B,F] | C,[B,C=E] F,,[A,F] |1 B,[F,,F,] [G,,G,][A,,A,] :|2 %53
 B,[F,,F,] [B,,,B,,] z ||[K:Eb] z4 | z4 | z4 | B, z [B,,B,] z |: E,[G,B,E] A,,[A,CE] | %59
 E,[G,B,E] [G,B,E] z | C,[G,CE] F,[A,CF] | C,[G,CE] [G,CE] z | F,[A,B,D] B,,[A,B,D] | %63
 E,[G,B,E] [G,,G,][_G,,_G,] | [F,,F,][F,B,D] [C,,C,][F,,F,] | [B,,,B,,][A,,A,] [G,,G,][F,,F,] | %66
 [E,,E,][G,B,E] A,,[A,CE] | E,[G,B,E] [G,B,E] z | C,[G,CE] F,[G,CF] | E,[G,B,E] [G,B,E] z | %70
 [A,,A,]2 [A,,A,][=A,,=A,] | [B,,B,] [C,,C,]2 [F,,,F,,] | [B,,,B,,]2 [B,,,B,,]2 |1 %73
 [E,,E,] z [B,,,B,,]2 :|2 [E,,E,]B,/B,/ B,/B,/B, |: F,[A,B,D] B,,[A,B,D] | F,[A,B,D] B,,[A,B,D] | %77
 E,[G,B,E] B,,[G,B,E] | E,[G,B,E] B,,[G,B,E] | F,[A,B,D] B,,[A,B,D] | F,[A,B,D] B,,[A,B,D] | %81
 E,[G,B,E] B,,[G,B,E] | E,[G,B,E] [=E,G,B,^C]2 | F,[A,B,D] B,,[A,B,D] | F,[A,B,D] B,,[A,B,D] | %85
 E,[G,B,E] B,,[G,B,E] | E,[G,B,E] G,[_DE] | [A,CE]2 [A,,A,][=A,,=A,] | [B,,B,] [C,,C,]2 [F,,,F,,] | %89
 [B,,,B,,]2 [B,,,B,,]2 |1 [E,,E,]B,/B,/ B,/B,/B, :|2 [E,,E,] z [E,,,E,,] z |: %92
"_Stamp." z [_DE]-"_Stamp." [DE][DE] |"_Stamp." [CE] z"_Stamp." z2 | %94
"_Stamp." z [CE]-"_Stamp." [CE][CE] |"_Stamp." [_CE_G] z"_Stamp." z2 | %96
"_Stamp." z [_CE_G]-"_Stamp." [CEG][CEG] |"_Stamp." [B,E=G] z"_Stamp." [=A,E_G]2- | %98
"_Stamp." [A,EG][B,E=G]-"_Stamp." [B,EG][B,DA] |"_Stamp." [EG] z"_Stamp." [E,,E,] z :: z4 | z4 | %102
"_Stamp." E,/F,/G,"_Stamp." z [F,,,F,,] |"_Stamp." [B,,,B,,] z"_Stamp." [B,,F,A,] z | z4 | z4 | %106
"_Stamp." D,/E,/F,"_Stamp." z [B,,,B,,] |1"_Stamp." [E,,E,] z"_Stamp." [E,,E,] z :|2 %108
"_Stamp." [E,,E,] z"_Stamp." [E,,E,] z || z4 | z4 |"_Stamp." [E,,E,][B,EG]"_Stamp." [E,,E,][B,EG] | %112
"_Stamp." [F,,F,][F,,F,]"_Stamp." [B,,,B,,][B,,,B,,] | z4 | z4 | %115
"_Stamp." [E,,E,][B,EG]"_Stamp." [E,,E,][B,EG] | %116
"_Stamp." [B,,,B,,][B,,,B,,]"_Stamp." [E,,E,][E,,E,] | z4 | z4 | %119
"_Stamp." [E,,E,][B,EG]"_Stamp." [E,,E,][B,EG] | %120
"_Stamp." [F,,F,][F,,F,]"_Stamp." [B,,,B,,][B,,,B,,] | z4 | z4 | %123
"_Stamp." !^![B,,B,] z"_Stamp." z2 |"_Stamp." z !^![B,,B,]"_Stamp." !^![E,,E,] z | z4 |: z4 | z4 | %128
"_Stamp." E,/F,/G,"_Stamp." z [F,,,F,,] |"_Stamp." [B,,,B,,] z"_Stamp." [B,,F,A,] z | z4 | z4 | %132
"_Stamp." D,/E,/F,"_Stamp." z [B,,,B,,] |1"_Stamp." [E,,E,] z"_Stamp." !^![E,,E,] z :|2 %134
"_Stamp." [E,,E,] z"_Stamp." !^![E,,E,] z |] %135
V:5
 x4 | x4 | x4 | x4 |: x4 :| x4 | x4 | x4 | x4 | x4 | z3 F | x4 | x4 | x4 | x4 | x4 | x4 | x4 | x4 | %19
 x4 | x4 | x4 | x4 | x4 | x4 | x4 | x4 | x4 | x4 | x4 | x4 | x4 | x4 | e/e/e/e/ d/d/d/d/ | %34
 c/c/c/c/ B/B/B/B/ | x4 | x4 |: x4 | x4 | x4 | x4 | x4 | x4 | x4 | x4 | x4 | x4 | x4 | x4 | x4 | %50
 x4 | x4 |1 x4 :|2 x4 ||[K:Eb] B,/=B,/C/^C/ D2- | D/D/E/=E/ F2 | A/G/F/E/ D/_D/C/_C/ | x4 |: x4 | %59
 x4 | x4 | x4 | x4 | x4 | x4 | x4 | x4 | x4 | x4 | x4 | x4 | x4 | z [B,E] z [A,B,D] |1 x4 :|2 x4 |: %75
 x4 | x4 | x4 | x4 | x4 | x4 | x4 | x4 | x4 | x4 | x4 | x4 | x4 | x4 | z [Be] z [ABd] |1 x4 :|2 %91
 x4 |: x4 | x4 | x4 | x4 | x4 | x4 | x4 | x4 :: g/^f/=f/=e/ _e/d/^c/=c/ | =B/_B/=A/_A/ G x | x4 | %103
 x4 | f/=e/_e/d/ ^c/=c/=B/_B/ | =A/_A/G/^F/ =F x | x4 |1 x4 :|2 x4 || [B,B][B,B] [=A,=A][A,A] | %110
 [_A,_A][A,A] [G,G][G,G] | x4 | x4 | [B,B][B,B] [=A,=A][A,A] | [_A,_A][A,A] [G,G][G,G] | x4 | x4 | %117
 [B,B][B,B] [=A,=A][A,A] | [_A,_A][A,A] [G,G][G,G] | x4 | x4 | [B,B][B,B] [=A,=A][A,A] | %122
 [_A,_A][A,A] [G,G] x | x4 | x4 | x4 |: g/^f/=f/=e/ _e/d/^c/=c/ | =B/_B/=A/_A/ G x | x4 | x4 | %130
 f/=e/_e/d/ ^c/=c/=B/_B/ | =A/_A/G/^F/ =F x | x4 |1 x4 :|2 x4 |] %135
V:6
 x4 | x4 | x4 | x4 |: x4 :| x4 | x4 | x4 | x4 | x4 | x4 | x4 | x4 | x4 | x4 | x4 | x4 | x4 | x4 | %19
 x4 | x4 | x4 | x4 | x4 | x4 | x4 | x4 | x4 | x4 | x4 | x4 | x4 | x4 | x4 | x4 | x4 | x4 |: x4 | %38
 x4 | x4 | x4 | x4 | x4 | x4 | x4 | x4 | x4 | x4 | x4 | x4 | x4 | x4 |1 F2- F z :|2 F2 z2 || %54
[K:Eb] x4 | x4 | x4 | x4 |: x4 | x4 | x4 | x4 | x4 | x4 | x4 | x4 | x4 | x4 | x4 | x4 | x4 | x4 | %72
 x4 |1 x4 :|2 x4 |: x4 | x4 | x4 | x4 | x4 | x4 | x4 | x4 | x4 | x4 | x4 | x4 | x4 | x4 | x4 |1 %90
 x4 :|2 x4 |: x4 | x4 | x4 | x4 | x4 | x4 | x4 | x4 :: x4 | x4 | x4 | x4 | x4 | x4 | x4 |1 x4 :|2 %108
 x4 || x4 | x4 | x4 | x4 | x4 | x4 | x4 | x4 | x4 | x4 | x4 | x4 | x4 | z3 [=A,,=A,] | x4 | x4 | %125
 x4 |: x4 | x4 | x4 | x4 | x4 | x4 | x4 |1 x4 :|2 x4 |] %135

